X: 12134
T: Everybody Knows That One!
R: jig
M: 6/8
K: Eminor
Bed B2 G|ABc BGE|F^EF GAB|cAB c2 A|
Bed B2 G|AA/B/c BGE|F^EF GAB|cAB E2:|
B2 e- e2 g|afd edc|B^AB e2 g|fed e2 d|
[1 B3 e2 g|afd e2 c|B^AB EGB|cAB c2:|
[2 B2 f gfe|dBe dcA|B^AB G=AB|cAB E2||

